!!!OTL: Graf Friedrich Graf Friedrich wollt' ausreiten
!!!ARE: Europa, Mitteleuropa, Deutschland / France, Lothringen
!!!YOR: 2, S. 215
!!    1934 aufgezeichnet
!!!SCT: Q0048G
!!!YEM: Copyright 1995, estate of Helmut Schaffrath.
**kern
*ICvox
*Ivox
!! Irregular meter.
*MX
*k[b-]
*F:
{4c
=1
2g
4a
2f
8g
8a
=2
4b-
4a
4g
2r}
{4c
=3
2g
8a
8g
2f
8g
8a
=4
4b-
4a
4g
2r
8r}
{[8f
=5
4f]
4e
4f
=6
4d
4c
4g
2g
4f
=7
2g
4r}
=8
{4cc
4a
4g
=9
4.f
8e
4d
8c
8d
4e
=10
2f}
==
!!!AGN: Ballade, Hochzeit, Mord / Unfall, Tod
!! Taktart in "FREI" geaendert. Unklar. Verzierung in der letzten Zeile.
!!    Kleinere Melodievariante abgedruckt.
!!!ONB: ESAC (Essen Associative Code) Database: BALLADE
!!!AMT: irregular
!!!AIN: vox
!!!EED: Helmut Schaffrath
!!!EEV: 1.0
*-
